X: 122
T: My Pretty Mary
N:"Moderate" "collected by J. O'Neill"
B:O'Neill's 122
Z:Transcribed by henrik.norbeck@mailbox.swipnet.se
M:C
L:1/8
K:G
D|G2 B>c (edcB)|(gfed) B2 {d}(cB)|A2 c>e (agfe)|">"(de)">"(cd) B2 (B>A)|
G2 B>d (gbaf)|{a}(gdec) B3 d|g2 d>e B2 {d}c>A|G4- G2 z||
d|g>(f g/a/b/a/) gfed|(Bd)(gd) B3 B|A2 Bd g2 ba|">"(ga)">"(fg) e3 d|
g>(a b/a/g/f/) e>(f g/f/e/d/)|(Bg)(Bc) A3 d|g2 d>e B2 {d}cA|G6 z||


